Yaru++/mimetypes/48/text-x-c++.svg

<svg height="48" viewBox="0 0 12.699375 12.699375" width="48" xmlns="http://www.w3.org/2000/svg" xmlns:xlink="http://www.w3.org/1999/xlink"><linearGradient id="a" gradientUnits="userSpaceOnUse" x1="6.350071" x2="6.350071" y1=".396856" y2="12.03795"><stop offset="0" stop-color="#fff"/><stop offset=".125" stop-color="#fff" stop-opacity=".098039"/><stop offset=".92500001" stop-color="#fff" stop-opacity=".098039"/><stop offset="1" stop-color="#fff" stop-opacity=".498039"/></linearGradient><linearGradient id="b" gradientTransform="matrix(0 -.02997086 .02997 0 -3.039509 13.625372)" gradientUnits="userSpaceOnUse" x1="459.03448" x2="35.310345" y1="419.23337" y2="207.36522"><stop offset="0" stop-color="#f2f2f2"/><stop offset="1" stop-color="#f9f9f9"/></linearGradient><path d="m4.1621981.39685614c-.5881133-.0089584-1.0513178.0135407-1.4323995.0775109-.3810845.0639688-.6929229.1839554-.9213476.4118407-.2284221.22788546-.3489841.53958336-.4123566.92082866-.0633725.3812456-.0757438.8453924-.07286 1.4349839v3.2399529 3.2415026c-.00286.5886862.00955 1.0525982.07286 1.4334342.063373.381246.1839345.692944.4123566.920829.2284247.227885.5402631.347873.9213476.411841.3810844.06397.8442174.07751 1.4323995.07751h4.3757443c.5881821 0 1.0510744-.01352 1.4313677-.07751.3802939-.064.6911799-.18439.9187599-.412357.227584-.227967.347434-.539443.411325-.920313.06389-.380868.07751-.844073.07751-1.4334342v-3.2415026-3.1748437l-2.8389626-2.84361416z" opacity=".1"/><path d="m4.1623595.39685614c-2.334616 0-2.5858176.2397933-2.5743749 2.57913186v3.2414149 3.2414149c-.011456 2.3393392.2397589 2.5791322 2.5743749 2.5791322h4.3757787c2.3346158 0 2.5743748-.239767 2.5743748-2.5791322v-3.2414149l-.000177-3.1748438-2.6457032-2.64570296z" fill="none" opacity=".2" stroke="#000" stroke-width=".529141"/><path d="m4.1623595.39685614c-2.334616 0-2.5858176.2397933-2.5743749 2.57913186v3.2414149 3.2414149c-.011456 2.3393392.2397589 2.5791322 2.5743749 2.5791322h4.3757787c2.3346158 0 2.5743748-.239767 2.5743748-2.5791322v-3.2414149l-.000177-3.1748438-2.6457032-2.64570296z" fill="url(#b)"/><path d="m4.4980781 6.2174029h.5291406v.5291406h-.5291406s-.5291406 0-.5291406.5291406v.5291407c0 .529141.5291406.529141.5291406.529141h.5291406v.52914h-.5291406s-1.0582813 0-1.0582813-1.058281v-.5291407c0-1.0582812 1.0582813-1.0582812 1.0582813-1.0582812zm1.5874219.5291406h.5291406v.5291406h.5291406v.5291407h-.5291406v.529141h-.5291406v-.529141h-.5291407v-.5291407h.5291407zm2.1165625 0h.5291406v.5291406h.5291406v.5291407h-.5291406v.529141h-.5291406v-.529141h-.5291407v-.5291407h.5291407z" fill="#2b898f"/><path d="m1.5878047 6.2174029v3.2415029c-.011456 2.3393382.2397774 2.5790442 2.5743934 2.5790442h4.3757443c2.3346166 0 2.5743936-.239679 2.5743936-2.5790442v-3.2415029z" fill="#fff" opacity=".2"/><path d="m6.3500703.39685614v11.64109386h2.1878721c2.3346166 0 2.5743936-.239679 2.5743936-2.5790442v-3.2415029-3.1748438l-2.6457032-2.64570296z" fill="#fff" opacity=".1"/><path d="m4.1621981.39685614c-2.334616 0-2.5858361.2397052-2.5743934 2.57904376v3.241503 3.2415029c-.011456 2.3393382.2397774 2.5790442 2.5743934 2.5790442h4.3757443c2.3346166 0 2.5743936-.239679 2.5743936-2.5790442v-3.2415029-3.1748438h-.26457v3.1748438 3.2415029c0 .5803222-.01624 1.0240722-.07028 1.3461042-.05402.322035-.139871.509123-.264055.633524-.124184.124388-.310701.2105-.631971.264571-.321273.05406-.7643965.07028-1.3435224.07028h-4.3757395c-.5791259 0-1.0227997-.01619-1.3450728-.07028-.3222705-.054102-.5102953-.14009-.6350719-.264571-.124774-.124488-.2105874-.311351-.2640518-.633005-.053467-.321654-.0684681-.765512-.0656266-1.3455892v-.00053-3.2420069-3.2420198-.0005291c-.00283-.5800778.01217-1.0239334.065627-1.3455882.053467-.3216548.1392778-.5085247.2640518-.63300506.124774-.1244803.31332-.2104736.6355904-.2645703.3222705-.0540718.7654284-.070264 1.3445543-.070264h4.3044347v-.2645703z" fill="url(#a)" opacity=".4"/><path d="m11.112336 3.3071295v-.2645704l-2.6457032-2.64570296h-.2645703v1.11359056.042668.022917c0 1.5059289.201592 1.7381397 1.7109762 1.7307589z" opacity=".2"/><path d="m11.112336 3.0422205-2.6457032-2.64536496v.98127586.042668.022917c0 1.5059289.069402 1.6058846 1.5787862 1.5985039z" fill="#faf8f6"/></svg>

<?xml version="1.0" encoding="UTF-8" standalone="no"?>
<svg
   xmlns:dc="http://purl.org/dc/elements/1.1/"
   xmlns:cc="http://creativecommons.org/ns#"
   xmlns:rdf="http://www.w3.org/1999/02/22-rdf-syntax-ns#"
   xmlns:svg="http://www.w3.org/2000/svg"
   xmlns="http://www.w3.org/2000/svg"
   xmlns:xlink="http://www.w3.org/1999/xlink"
   xmlns:sodipodi="http://sodipodi.sourceforge.net/DTD/sodipodi-0.dtd"
   xmlns:inkscape="http://www.inkscape.org/namespaces/inkscape"
   height="48"
   viewBox="0 0 12.699375 12.699375"
   width="48"
   version="1.1"
   id="svg33"
   sodipodi:docname="text-x-c++.svg"
   inkscape:version="0.92.5 (2060ec1f9f, 2020-04-08)">
  <metadata
     id="metadata39">
    <rdf:RDF>
      <cc:Work
         rdf:about="">
        <dc:format>image/svg+xml</dc:format>
        <dc:type
           rdf:resource="http://purl.org/dc/dcmitype/StillImage" />
      </cc:Work>
    </rdf:RDF>
  </metadata>
  <defs
     id="defs37">
    <linearGradient
       gradientTransform="matrix(0.26457031,0,0,0.26457031,-84.662116,-16.006503)"
       inkscape:collect="always"
       xlink:href="#linearGradient927"
       id="linearGradient1004"
       x1="344"
       y1="62"
       x2="344"
       y2="106"
       gradientUnits="userSpaceOnUse" />
    <linearGradient
       inkscape:collect="always"
       id="linearGradient927">
      <stop
         style="stop-color:#ffffff;stop-opacity:1;"
         offset="0"
         id="stop923" />
      <stop
         id="stop933"
         offset="0.125"
         style="stop-color:#ffffff;stop-opacity:0.09803922" />
      <stop
         id="stop931"
         offset="0.92500001"
         style="stop-color:#ffffff;stop-opacity:0.09803922" />
      <stop
         style="stop-color:#ffffff;stop-opacity:0.49803922"
         offset="1"
         id="stop925" />
    </linearGradient>
    <linearGradient
       inkscape:collect="always"
       xlink:href="#linearGradient4338"
       id="linearGradient1024"
       gradientUnits="userSpaceOnUse"
       gradientTransform="matrix(0,-0.02997086,0.02997,0,-3.0395089,13.625372)"
       x1="459.03448"
       y1="419.23337"
       x2="35.310345"
       y2="207.36522" />
    <linearGradient
       inkscape:collect="always"
       id="linearGradient4338">
      <stop
         style="stop-color:#f2f2f2;stop-opacity:1"
         offset="0"
         id="stop4340" />
      <stop
         style="stop-color:#f9f9f9;stop-opacity:1"
         offset="1"
         id="stop4342" />
    </linearGradient>
  </defs>
  <sodipodi:namedview
     pagecolor="#ffffff"
     bordercolor="#666666"
     borderopacity="1"
     objecttolerance="10"
     gridtolerance="10"
     guidetolerance="10"
     inkscape:pageopacity="0"
     inkscape:pageshadow="2"
     inkscape:window-width="834"
     inkscape:window-height="480"
     id="namedview35"
     showgrid="false"
     inkscape:zoom="4.9166667"
     inkscape:cx="24"
     inkscape:cy="24"
     inkscape:window-x="0"
     inkscape:window-y="28"
     inkscape:window-maximized="0"
     inkscape:current-layer="svg33" />
  <linearGradient
     id="a"
     gradientUnits="userSpaceOnUse"
     x1="344"
     x2="344"
     y1="62"
     y2="106">
    <stop
       offset="0"
       stop-color="#fff"
       id="stop2" />
    <stop
       offset=".125"
       stop-color="#fff"
       stop-opacity=".098039"
       id="stop4" />
    <stop
       offset=".92500001"
       stop-color="#fff"
       stop-opacity=".098039"
       id="stop6" />
    <stop
       offset="1"
       stop-color="#fff"
       stop-opacity=".498039"
       id="stop8" />
  </linearGradient>
  <clipPath
     id="b">
    <path
       d="m335.73108 62c-8.82418 0-9.77365.90635-9.7304 9.74838v12.25162 12.25162c-.0433 8.84203.90622 9.74838 9.7304 9.74838h16.53919c8.82418 0 9.7304-.90625 9.7304-9.74838v-12.25162-12.25162c0-8.84213-.90622-9.74838-9.7304-9.74838z"
       id="path11" />
  </clipPath>
  <linearGradient
     id="c"
     gradientTransform="matrix(0 -.02997086 .02997 0 -3.039509 13.625372)"
     gradientUnits="userSpaceOnUse"
     x1="459.03448"
     x2="35.310345"
     y1="419.23337"
     y2="207.36522">
    <stop
       offset="0"
       stop-color="#f2f2f2"
       id="stop14" />
    <stop
       offset="1"
       stop-color="#f9f9f9"
       id="stop16" />
  </linearGradient>
  <path
     style="color:#000000;font-style:normal;font-variant:normal;font-weight:normal;font-stretch:normal;font-size:medium;line-height:normal;font-family:sans-serif;font-variant-ligatures:normal;font-variant-position:normal;font-variant-caps:normal;font-variant-numeric:normal;font-variant-alternates:normal;font-feature-settings:normal;text-indent:0;text-align:start;text-decoration:none;text-decoration-line:none;text-decoration-style:solid;text-decoration-color:#000000;letter-spacing:normal;word-spacing:normal;text-transform:none;writing-mode:lr-tb;direction:ltr;text-orientation:mixed;dominant-baseline:auto;baseline-shift:baseline;text-anchor:start;white-space:normal;shape-padding:0;clip-rule:nonzero;display:inline;overflow:visible;visibility:visible;opacity:0.1;isolation:auto;mix-blend-mode:normal;color-interpolation:sRGB;color-interpolation-filters:linearRGB;solid-color:#000000;solid-opacity:1;vector-effect:none;fill:#000000;fill-opacity:1;fill-rule:nonzero;stroke:none;stroke-width:0.52914065;stroke-linecap:butt;stroke-linejoin:miter;stroke-miterlimit:4;stroke-dasharray:none;stroke-dashoffset:0;stroke-opacity:1;marker:none;color-rendering:auto;image-rendering:auto;shape-rendering:auto;text-rendering:auto;enable-background:accumulate"
     d="M 4.1621981,0.39685614 C 3.5740848,0.38789774 3.1108803,0.41039684 2.7297986,0.47436704 2.3487141,0.53833584 2.0368757,0.65832244 1.808451,0.88620774 1.5800289,1.1140932 1.4594669,1.4257911 1.3960944,1.8070364 1.3327219,2.188282 1.3203506,2.6524288 1.3232344,3.2420203 v 3.2399529 3.2415026 c -0.00286,0.5886862 0.00955,1.0525982 0.07286,1.4334342 0.063373,0.381246 0.1839345,0.692944 0.4123566,0.920829 0.2284247,0.227885 0.5402631,0.347873 0.9213476,0.411841 0.3810844,0.06397 0.8442174,0.07751 1.4323995,0.07751 h 4.3757443 c 0.5881821,0 1.0510744,-0.01352 1.4313677,-0.07751 0.3802939,-0.064 0.6911799,-0.18439 0.9187599,-0.412357 0.227584,-0.227967 0.347434,-0.539443 0.411325,-0.920313 0.06389,-0.380868 0.07751,-0.844073 0.07751,-1.4334342 V 6.4819732 3.3071295 L 8.5379424,0.46351534 Z"
     id="path1020"
     inkscape:connector-curvature="0"
     sodipodi:nodetypes="sccsccccccsscccscccs" />
  <path
     style="color:#000000;display:inline;overflow:visible;visibility:visible;opacity:0.2;fill:none;fill-opacity:1;fill-rule:nonzero;stroke:#000000;stroke-width:0.52914065;stroke-miterlimit:4;stroke-dasharray:none;stroke-opacity:1;marker:none;enable-background:accumulate"
     d="m 4.1623595,0.39685614 c -2.334616,0 -2.5858176,0.2397933 -2.5743749,2.57913186 V 6.2174029 9.4588178 C 1.5765286,11.798157 1.8277435,12.03795 4.1623595,12.03795 h 4.3757787 c 2.3346158,0 2.5743748,-0.239767 2.5743748,-2.5791322 V 6.2174029 L 11.112336,3.0425591 8.4666328,0.39685614 Z"
     id="path958"
     inkscape:connector-curvature="0"
     sodipodi:nodetypes="scccssscccs" />
  <path
     style="color:#000000;display:inline;overflow:visible;visibility:visible;fill:url(#linearGradient1024);fill-opacity:1;fill-rule:nonzero;stroke:none;stroke-width:0.26457033;marker:none;enable-background:accumulate"
     d="m 4.1623595,0.39685614 c -2.334616,0 -2.5858176,0.2397933 -2.5743749,2.57913186 V 6.2174029 9.4588178 C 1.5765286,11.798157 1.8277435,12.03795 4.1623595,12.03795 h 4.3757787 c 2.3346158,0 2.5743748,-0.239767 2.5743748,-2.5791322 V 6.2174029 L 11.112336,3.0425591 8.4666328,0.39685614 Z"
     id="path964"
     inkscape:connector-curvature="0"
     sodipodi:nodetypes="scccssscccs" />
  <path
     sodipodi:nodetypes="ccccssccccssccccccccccccccccccccccccccc"
     inkscape:connector-curvature="0"
     style="color:#000000;font-style:normal;font-variant:normal;font-weight:normal;font-stretch:normal;font-size:medium;line-height:normal;font-family:Sans;-inkscape-font-specification:Sans;text-indent:0;text-align:start;text-decoration:none;text-decoration-line:none;letter-spacing:normal;word-spacing:normal;text-transform:none;writing-mode:lr-tb;direction:ltr;baseline-shift:baseline;text-anchor:start;display:inline;overflow:visible;visibility:visible;fill:#2b898f;fill-opacity:1;stroke:none;stroke-width:0.52914059;marker:none;enable-background:accumulate"
     d="M 4.4980781,6.2174029 H 5.0272187 V 6.7465435 H 4.4980781 c 0,0 -0.5291406,0 -0.5291406,0.5291406 v 0.5291407 c 0,0.529141 0.5291406,0.529141 0.5291406,0.529141 h 0.5291406 v 0.52914 H 4.4980781 c 0,0 -1.0582813,0 -1.0582813,-1.058281 V 7.2756841 c 0,-1.0582812 1.0582813,-1.0582812 1.0582813,-1.0582812 z M 6.0855,6.7465435 H 6.6146406 V 7.2756841 H 7.1437812 V 7.8048248 H 6.6146406 v 0.529141 H 6.0855 V 7.8048248 H 5.5563593 V 7.2756841 H 6.0855 Z m 2.1165625,0 H 8.7312031 V 7.2756841 H 9.2603437 V 7.8048248 H 8.7312031 v 0.529141 H 8.2020625 V 7.8048248 H 7.6729218 V 7.2756841 h 0.5291407 z"
     id="path927-3" />
  <path
     style="color:#000000;display:inline;overflow:visible;visibility:visible;opacity:0.2;fill:#ffffff;fill-opacity:1;fill-rule:nonzero;stroke:none;stroke-width:0.26457033;marker:none;enable-background:accumulate"
     d="M 1.5878047,6.2174029 V 9.4589058 C 1.5763487,11.798244 1.8275821,12.03795 4.1621981,12.03795 h 4.3757443 c 2.3346166,0 2.5743936,-0.239679 2.5743936,-2.5790442 V 6.2174029 Z"
     id="path1006"
     inkscape:connector-curvature="0" />
  <path
     style="color:#000000;display:inline;overflow:visible;visibility:visible;opacity:0.1;fill:#ffffff;fill-opacity:1;fill-rule:nonzero;stroke:none;stroke-width:0.26457033;marker:none;enable-background:accumulate"
     d="M 6.3500703,0.39685614 V 12.03795 h 2.1878721 c 2.3346166,0 2.5743936,-0.239679 2.5743936,-2.5790442 V 6.2174029 3.0425591 L 8.4666328,0.39685614 Z"
     id="path1013"
     inkscape:connector-curvature="0"
     sodipodi:nodetypes="ccsscccc" />
  <path
     style="color:#000000;font-style:normal;font-variant:normal;font-weight:normal;font-stretch:normal;font-size:medium;line-height:normal;font-family:sans-serif;font-variant-ligatures:normal;font-variant-position:normal;font-variant-caps:normal;font-variant-numeric:normal;font-variant-alternates:normal;font-feature-settings:normal;text-indent:0;text-align:start;text-decoration:none;text-decoration-line:none;text-decoration-style:solid;text-decoration-color:#000000;letter-spacing:normal;word-spacing:normal;text-transform:none;writing-mode:lr-tb;direction:ltr;text-orientation:mixed;dominant-baseline:auto;baseline-shift:baseline;text-anchor:start;white-space:normal;shape-padding:0;clip-rule:nonzero;display:inline;overflow:visible;visibility:visible;opacity:0.4;isolation:auto;mix-blend-mode:normal;color-interpolation:sRGB;color-interpolation-filters:linearRGB;solid-color:#000000;solid-opacity:1;vector-effect:none;fill:url(#linearGradient1004);fill-opacity:1;fill-rule:nonzero;stroke:none;stroke-width:0.52914065;stroke-linecap:butt;stroke-linejoin:miter;stroke-miterlimit:4;stroke-dasharray:none;stroke-dashoffset:0;stroke-opacity:1;marker:none;color-rendering:auto;image-rendering:auto;shape-rendering:auto;text-rendering:auto;enable-background:accumulate"
     clip-path="none"
     d="m 4.1621981,0.39685614 c -2.334616,0 -2.5858361,0.2397052 -2.5743934,2.57904376 v 3.241503 3.2415029 C 1.5763487,11.798244 1.8275821,12.03795 4.1621981,12.03795 h 4.3757443 c 2.3346166,0 2.5743936,-0.239679 2.5743936,-2.5790442 V 6.2174029 3.0425591 h -0.26457 v 3.1748438 3.2415029 c 0,0.5803222 -0.01624,1.0240722 -0.07028,1.3461042 -0.05402,0.322035 -0.139871,0.509123 -0.264055,0.633524 -0.124184,0.124388 -0.310701,0.2105 -0.631971,0.264571 -0.321273,0.05406 -0.7643965,0.07028 -1.3435224,0.07028 H 4.1621981 c -0.5791259,0 -1.0227997,-0.01619 -1.3450728,-0.07028 C 2.4948548,11.649003 2.30683,11.563015 2.1820534,11.438534 2.0572794,11.314046 1.971466,11.127183 1.9180016,10.805529 1.8645346,10.483875 1.8495335,10.040017 1.852375,9.4599398 V 9.4594098 6.2174029 2.9753831 2.974854 c -0.00283,-0.5800778 0.01217,-1.0239334 0.065627,-1.3455882 0.053467,-0.3216548 0.1392778,-0.5085247 0.2640518,-0.63300506 0.124774,-0.1244803 0.31332,-0.2104736 0.6355904,-0.2645703 0.3222705,-0.0540718 0.7654284,-0.070264 1.3445543,-0.070264 h 4.3044347 v -0.2645703 z"
     id="path990"
     inkscape:connector-curvature="0" />
  <path
     inkscape:connector-curvature="0"
     style="color:#000000;display:inline;overflow:visible;visibility:visible;opacity:0.2;fill:#000000;fill-opacity:1;fill-rule:nonzero;stroke:none;stroke-width:0.06614863;marker:none;enable-background:accumulate"
     d="M 11.112336,3.3071295 V 3.0425591 L 8.4666328,0.39685614 H 8.2020625 v 1.11359056 0.042668 0.022917 c 0,1.5059289 0.201592,1.7381397 1.7109762,1.7307589 z"
     id="rect4158-0-3-62-2"
     sodipodi:nodetypes="ccccccscc" />
  <path
     inkscape:connector-curvature="0"
     style="color:#000000;display:inline;overflow:visible;visibility:visible;fill:#faf8f6;fill-opacity:1;fill-rule:nonzero;stroke:none;stroke-width:0.06614863;marker:none;enable-background:accumulate"
     d="M 11.112336,3.0422205 8.4666328,0.39685554 v 0.98127586 0.042668 0.022917 c 0,1.5059289 0.069402,1.6058846 1.5787862,1.5985039 z"
     id="rect4158-0-3-62"
     sodipodi:nodetypes="ccccscc" />
</svg>
